utils/icons-generator/ic_platform_book.svg

<?xml version="1.0" encoding="UTF-8" standalone="no"?>
<svg
   xmlns:dc="http://purl.org/dc/elements/1.1/"
   xmlns:cc="http://creativecommons.org/ns#"
   xmlns:rdf="http://www.w3.org/1999/02/22-rdf-syntax-ns#"
   xmlns:svg="http://www.w3.org/2000/svg"
   xmlns="http://www.w3.org/2000/svg"
   xmlns:sodipodi="http://sodipodi.sourceforge.net/DTD/sodipodi-0.dtd"
   xmlns:inkscape="http://www.inkscape.org/namespaces/inkscape"
   width="1000pt"
   height="1000pt"
   viewBox="0 0 1000 1000"
   version="1.1"
   id="svg1126"
   sodipodi:docname="ic_platform_book.svg"
   inkscape:version="0.92.4 (5da689c313, 2019-01-14)">
  <metadata
     id="metadata1132">
    <rdf:RDF>
      <cc:Work
         rdf:about="">
        <dc:format>image/svg+xml</dc:format>
        <dc:type
           rdf:resource="http://purl.org/dc/dcmitype/StillImage" />
      </cc:Work>
    </rdf:RDF>
  </metadata>
  <defs
     id="defs1130" />
  <sodipodi:namedview
     pagecolor="#ffffff"
     bordercolor="#666666"
     borderopacity="1"
     objecttolerance="10"
     gridtolerance="10"
     guidetolerance="10"
     inkscape:pageopacity="0"
     inkscape:pageshadow="2"
     inkscape:window-width="2560"
     inkscape:window-height="1346"
     id="namedview1128"
     showgrid="false"
     inkscape:zoom="0.177"
     inkscape:cx="666.66667"
     inkscape:cy="666.66667"
     inkscape:window-x="-11"
     inkscape:window-y="-11"
     inkscape:window-maximized="1"
     inkscape:current-layer="svg1126" />
  <g
     id="surface1"
     transform="matrix(1.0733737,0,0,1.0733737,-36.770967,-36.686864)">
    <path
       style="fill:#000000;fill-opacity:1;fill-rule:nonzero;stroke:none"
       d="m 950.33594,266.74219 c 14.8789,21.20312 18.22656,45.19922 10.04297,71.98437 L 806.91797,844.30859 c -7.06641,23.8086 -21.29688,43.80469 -42.6875,59.98828 -21.39063,16.1836 -44.17969,24.27344 -68.35938,24.27344 h -515.0664 c -28.64844,0 -56.26953,-9.94922 -82.871096,-29.85547 -26.597656,-19.90234 -45.105469,-44.36328 -55.523438,-73.3789 -8.929687,-24.92578 -9.300781,-48.55078 -1.117187,-70.8711 0,-1.48828 0.558593,-6.51172 1.675781,-15.0664 1.117188,-8.5586 1.859375,-15.44141 2.230469,-20.64844 0.375,-2.97656 -0.183594,-6.97656 -1.671875,-11.99609 -1.488282,-5.02344 -2.046875,-8.65235 -1.675782,-10.88282 0.746094,-4.09375 2.234376,-8 4.464844,-11.71875 2.234375,-3.72265 5.300782,-8.09375 9.207032,-13.11328 3.90625,-5.02344 6.976562,-9.39453 9.207031,-13.11328 8.558593,-14.13672 16.929687,-31.16016 25.113281,-51.0625 8.183594,-19.90234 13.76563,-36.92187 16.74219,-51.05859 1.11328,-3.72266 1.20703,-9.30078 0.27734,-16.74219 -0.92969,-7.44141 -1.02344,-12.64844 -0.27734,-15.625 1.11328,-4.09375 4.27734,-9.30078 9.48437,-15.625 5.21094,-6.32422 8.3711,-10.60156 9.48828,-12.83594 7.8125,-13.39062 15.625,-30.5039 23.4375,-51.33984 7.8125,-20.83203 12.46094,-37.57422 13.94922,-50.22266 0.375,-3.34765 -0.0937,-9.30078 -1.39453,-17.85547 -1.30078,-8.55859 -1.20703,-13.76562 0.28125,-15.625 1.48828,-4.83593 5.57813,-10.51172 12.27344,-17.01953 6.69922,-6.51172 10.78906,-10.69531 12.27734,-12.55859 7.07031,-9.67188 14.97656,-25.39063 23.71875,-47.15235 8.74219,-21.76171 13.85547,-39.71484 15.34375,-53.85156 0.375,-2.97656 -0.18359,-7.71875 -1.67187,-14.23047 -1.48828,-6.50781 -1.85938,-11.4375 -1.11719,-14.78515 0.74219,-2.97657 2.41797,-6.32422 5.02344,-10.04688 2.60156,-3.71875 5.95312,-7.99609 10.04297,-12.83203 4.09375,-4.83984 7.2539,-8.74609 9.48828,-11.71875 2.97656,-4.46484 6.04297,-10.14062 9.20703,-17.02344 3.16015,-6.8789 5.95312,-13.39062 8.37109,-19.53125 2.41797,-6.13671 5.39453,-12.83203 8.92578,-20.08593 3.53516,-7.25782 7.16407,-13.207035 10.88282,-17.859379 3.72265,-4.648437 8.64843,-9.019531 14.78906,-13.113281 6.13672,-4.09375 12.83594,-6.230469 20.08984,-6.417969 7.25391,-0.183593 16.08985,0.835938 26.50391,3.070313 l -0.55469,1.671875 c 14.13672,-3.347657 23.62109,-5.019531 28.45703,-5.019531 h 424.66797 c 27.52734,0 48.73438,10.414062 63.61328,31.250002 14.88281,20.83203 18.23047,45.01562 10.04688,72.54297 L 719.30859,680.80469 c -13.39453,44.26953 -26.6914,72.82422 -39.89843,85.65625 -13.20704,12.83593 -37.10938,19.2539 -71.71094,19.2539 H 122.76953 c -10.04687,0 -17.11328,2.78907 -21.20703,8.3711 -4.09375,5.95312 -4.277344,13.94922 -0.55859,23.99609 8.92968,26.03906 35.71484,39.0625 80.35937,39.0625 h 515.06641 c 10.78906,0 21.20312,-2.88672 31.25,-8.65234 10.04297,-5.76563 16.55468,-13.48438 19.53125,-23.15625 L 914.62109,274.55469 c 2.60547,-8.1875 3.53516,-18.78907 2.78907,-31.8086 14.13671,5.57813 25.11328,13.57813 32.92578,23.9961 z m -593.75,1.11328 c -1.48828,4.83984 -1.11719,9.02344 1.11328,12.55859 2.23437,3.53125 5.95312,5.30078 11.16406,5.30078 h 339.28516 c 4.83593,0 9.57812,-1.76953 14.23047,-5.30078 4.64843,-3.53515 7.71875,-7.71875 9.20703,-12.55859 l 11.71875,-35.71094 c 1.48828,-4.83984 1.11328,-9.02344 -1.11719,-12.55859 -2.23047,-3.53125 -5.95313,-5.30078 -11.16016,-5.30078 H 391.74219 c -4.83594,0 -9.58203,1.76953 -14.23047,5.30078 -4.65235,3.53515 -7.71875,7.71875 -9.20703,12.55859 z m -46.31641,142.85937 c -1.48828,4.83594 -1.11719,9.01953 1.11328,12.55469 2.23438,3.53516 5.95313,5.30078 11.16016,5.30078 h 339.28906 c 4.83594,0 9.57813,-1.76562 14.22656,-5.30078 4.65235,-3.53516 7.72266,-7.71875 9.21094,-12.55469 L 696.98828,375 c 1.48828,-4.83594 1.11328,-9.02344 -1.11719,-12.55469 -2.23437,-3.53515 -5.95312,-5.30078 -11.16015,-5.30078 H 345.42578 c -4.83984,0 -9.58203,1.76563 -14.23047,5.30078 -4.65234,3.53125 -7.71875,7.71875 -9.20703,12.55469 z m 0,0"
       id="path1123"
       inkscape:connector-curvature="0" />
  </g>
</svg>

<?xml version="1.0" encoding="UTF-8"?>
<svg xmlns="http://www.w3.org/2000/svg" xmlns:xlink="http://www.w3.org/1999/xlink" width="1000pt" height="1000pt" viewBox="0 0 1000 1000" version="1.1">
<g id="surface1">
<path style=" stroke:none;fill-rule:nonzero;fill:rgb(0%,0%,0%);fill-opacity:1;" d="M 950.335938 266.742188 C 965.214844 287.945312 968.5625 311.941406 960.378906 338.726562 L 806.917969 844.308594 C 799.851562 868.117188 785.621094 888.113281 764.230469 904.296875 C 742.839844 920.480469 720.050781 928.570312 695.871094 928.570312 L 180.804688 928.570312 C 152.15625 928.570312 124.535156 918.621094 97.933594 898.714844 C 71.335938 878.8125 52.828125 854.351562 42.410156 825.335938 C 33.480469 800.410156 33.109375 776.785156 41.292969 754.464844 C 41.292969 752.976562 41.851562 747.953125 42.96875 739.398438 C 44.085938 730.839844 44.828125 723.957031 45.199219 718.75 C 45.574219 715.773438 45.015625 711.773438 43.527344 706.753906 C 42.039062 701.730469 41.480469 698.101562 41.851562 695.871094 C 42.597656 691.777344 44.085938 687.871094 46.316406 684.152344 C 48.550781 680.429688 51.617188 676.058594 55.523438 671.039062 C 59.429688 666.015625 62.5 661.644531 64.730469 657.925781 C 73.289062 643.789062 81.660156 626.765625 89.84375 606.863281 C 98.027344 586.960938 103.609375 569.941406 106.585938 555.804688 C 107.699219 552.082031 107.792969 546.503906 106.863281 539.0625 C 105.933594 531.621094 105.839844 526.414062 106.585938 523.4375 C 107.699219 519.34375 110.863281 514.136719 116.070312 507.8125 C 121.28125 501.488281 124.441406 497.210938 125.558594 494.976562 C 133.371094 481.585938 141.183594 464.472656 148.996094 443.636719 C 156.808594 422.804688 161.457031 406.0625 162.945312 393.414062 C 163.320312 390.066406 162.851562 384.113281 161.550781 375.558594 C 160.25 367 160.34375 361.792969 161.832031 359.933594 C 163.320312 355.097656 167.410156 349.421875 174.105469 342.914062 C 180.804688 336.402344 184.894531 332.21875 186.382812 330.355469 C 193.453125 320.683594 201.359375 304.964844 210.101562 283.203125 C 218.84375 261.441406 223.957031 243.488281 225.445312 229.351562 C 225.820312 226.375 225.261719 221.632812 223.773438 215.121094 C 222.285156 208.613281 221.914062 203.683594 222.65625 200.335938 C 223.398438 197.359375 225.074219 194.011719 227.679688 190.289062 C 230.28125 186.570312 233.632812 182.292969 237.722656 177.457031 C 241.816406 172.617188 244.976562 168.710938 247.210938 165.738281 C 250.1875 161.273438 253.253906 155.597656 256.417969 148.714844 C 259.578125 141.835938 262.371094 135.324219 264.789062 129.183594 C 267.207031 123.046875 270.183594 116.351562 273.714844 109.097656 C 277.25 101.839844 280.878906 95.890625 284.597656 91.238281 C 288.320312 86.589844 293.246094 82.21875 299.386719 78.125 C 305.523438 74.03125 312.222656 71.894531 319.476562 71.707031 C 326.730469 71.523438 335.566406 72.542969 345.980469 74.777344 L 345.425781 76.449219 C 359.5625 73.101562 369.046875 71.429688 373.882812 71.429688 L 798.550781 71.429688 C 826.078125 71.429688 847.285156 81.84375 862.164062 102.679688 C 877.046875 123.511719 880.394531 147.695312 872.210938 175.222656 L 719.308594 680.804688 C 705.914062 725.074219 692.617188 753.628906 679.410156 766.460938 C 666.203125 779.296875 642.300781 785.714844 607.699219 785.714844 L 122.769531 785.714844 C 112.722656 785.714844 105.65625 788.503906 101.5625 794.085938 C 97.46875 800.039062 97.285156 808.035156 101.003906 818.082031 C 109.933594 844.121094 136.71875 857.144531 181.363281 857.144531 L 696.429688 857.144531 C 707.21875 857.144531 717.632812 854.257812 727.679688 848.492188 C 737.722656 842.726562 744.234375 835.007812 747.210938 825.335938 L 914.621094 274.554688 C 917.226562 266.367188 918.15625 255.765625 917.410156 242.746094 C 931.546875 248.324219 942.523438 256.324219 950.335938 266.742188 Z M 356.585938 267.855469 C 355.097656 272.695312 355.46875 276.878906 357.699219 280.414062 C 359.933594 283.945312 363.652344 285.714844 368.863281 285.714844 L 708.148438 285.714844 C 712.984375 285.714844 717.726562 283.945312 722.378906 280.414062 C 727.027344 276.878906 730.097656 272.695312 731.585938 267.855469 L 743.304688 232.144531 C 744.792969 227.304688 744.417969 223.121094 742.1875 219.585938 C 739.957031 216.054688 736.234375 214.285156 731.027344 214.285156 L 391.742188 214.285156 C 386.90625 214.285156 382.160156 216.054688 377.511719 219.585938 C 372.859375 223.121094 369.792969 227.304688 368.304688 232.144531 Z M 310.269531 410.714844 C 308.78125 415.550781 309.152344 419.734375 311.382812 423.269531 C 313.617188 426.804688 317.335938 428.570312 322.542969 428.570312 L 661.832031 428.570312 C 666.667969 428.570312 671.410156 426.804688 676.058594 423.269531 C 680.710938 419.734375 683.78125 415.550781 685.269531 410.714844 L 696.988281 375 C 698.476562 370.164062 698.101562 365.976562 695.871094 362.445312 C 693.636719 358.910156 689.917969 357.144531 684.710938 357.144531 L 345.425781 357.144531 C 340.585938 357.144531 335.84375 358.910156 331.195312 362.445312 C 326.542969 365.976562 323.476562 370.164062 321.988281 375 Z M 310.269531 410.714844 "/>
</g>
</svg>
